img/Linkedin-hover.svg

<svg width="169" height="169" viewBox="0 0 169 169" fill="none" xmlns="http://www.w3.org/2000/svg">
<circle cx="84.5" cy="84.5" r="84.5" fill="#FFEAC0"/>
<path d="M79.3051 75.5646C79.2744 74.108 78.2806 73 76.6672 73C75.054 73 74 74.1081 74 75.5646C74 76.989 75.023 78.1281 76.6057 78.1281H76.636C78.2805 78.1281 79.3051 76.9889 79.3051 75.5646Z" fill="#F2F2F2"/>
<path d="M96 86.4885C96 81.9292 93.6739 79.8075 90.571 79.8075C88.0685 79.8075 86.9476 81.2463 86.3209 82.2578V80.1557H81.6043C81.6662 81.5485 81.6043 94.9999 81.6043 94.9999H86.3199V86.71C86.3199 86.2664 86.3506 85.8235 86.4751 85.5063C86.816 84.6199 87.5926 83.7023 88.8954 83.7023C90.6019 83.7023 91.2844 85.0637 91.2844 87.0591V94.9999H96V86.4885Z" fill="#F2F2F2"/>
<path d="M78.9938 80.1567H74.2782V95H78.9938V80.1567Z" fill="#F2F2F2"/>
<path d="M79.7216 73.7929H79.7217L79.7215 73.7823C79.7039 72.9553 79.4071 72.1991 78.8546 71.6478C78.3 71.0944 77.521 70.7806 76.6028 70.7806C75.6862 70.7806 74.8944 71.0932 74.3294 71.6435C73.7645 72.1937 73.4548 72.9539 73.4548 73.7929C73.4548 75.4613 74.6911 76.8042 76.5417 76.8042H76.5718C77.5058 76.8042 78.2991 76.4827 78.8606 75.9273C79.4207 75.3733 79.7216 74.6143 79.7216 73.7929ZM95.7961 93.3323H96.2961V92.8323V84.4943C96.2961 82.1789 95.6971 80.4099 94.6294 79.214C93.5561 78.0119 92.0631 77.4495 90.4063 77.4495C89.0611 77.4495 88.0599 77.8337 87.3075 78.3712C87.0757 78.5368 86.87 78.7153 86.6868 78.8981V78.2905V77.7905H86.1868H81.5043H80.9813L81.0048 78.313C81.0348 78.9797 81.035 82.5967 81.0273 86.072C81.0235 87.804 81.0177 89.4936 81.0129 90.7501C81.0105 91.3784 81.0084 91.8984 81.0068 92.2613L81.005 92.6817L81.0045 92.7922L81.0043 92.8204L81.0043 92.8276L81.0043 92.8294L81.0043 92.8298C81.0043 92.8299 81.0043 92.83 81.5043 92.8323L81.0043 92.83L81.002 93.3323H81.5043H86.1859H86.6859V92.8323V84.7113C86.6859 84.2787 86.7195 83.9307 86.8045 83.7171L86.8058 83.7137C87.1006 82.9575 87.7295 82.2649 88.7427 82.2649C89.4355 82.2649 89.8653 82.525 90.1466 82.9514C90.4501 83.4115 90.6145 84.1192 90.6145 85.0533V92.8323V93.3323H91.1145H95.7961ZM74.231 77.7915H73.731V78.2915V92.8324V93.3324H74.231H78.9126H79.4126V92.8324V78.2915V77.7915H78.9126H74.231ZM69.5 72.2708C69.5 69.0834 72.0251 66.5 75.0748 66.5H93.9262C96.9758 66.5 99.5 69.0833 99.5 72.2708V91.7302C99.5 94.9176 96.9759 97.5 93.9262 97.5H75.0748C72.025 97.5 69.5 94.9175 69.5 91.7302V72.2708Z" fill="#FDB92D" fill-opacity="0.8" stroke="#3F3D56"/>
<mask id="mask0" mask-type="alpha" maskUnits="userSpaceOnUse" x="99" y="45" width="25" height="25">
<circle cx="111.302" cy="57.3016" r="11.9016" fill="#C4C4C4" stroke="black" stroke-width="0.8"/>
</mask>
<g mask="url(#mask0)">
<path d="M100.341 70.2469C100.423 64.2648 105.385 59.4358 111.5 59.4358C117.615 59.4358 122.577 64.2648 122.658 70.2469H100.341Z" fill="#FDB92D" stroke="black" stroke-width="0.3"/>
</g>
<circle cx="111.5" cy="53.5" r="4.35" fill="#FDB92D" stroke="black" stroke-width="0.3"/>
<circle cx="111.5" cy="57.5" r="12.25" stroke="black" stroke-width="0.5"/>
<mask id="mask1" mask-type="alpha" maskUnits="userSpaceOnUse" x="43" y="48" width="25" height="25">
<circle cx="55.3016" cy="60.3016" r="11.9016" fill="#C4C4C4" stroke="black" stroke-width="0.8"/>
</mask>
<g mask="url(#mask1)">
<path d="M44.3415 73.2469C44.4232 67.2648 49.3852 62.4358 55.5 62.4358C61.6147 62.4358 66.5767 67.2648 66.6585 73.2469H44.3415Z" fill="#FDB92D" stroke="black" stroke-width="0.3"/>
</g>
<circle cx="55.5" cy="56.5" r="4.35" fill="#FDB92D" stroke="black" stroke-width="0.3"/>
<circle cx="55.5" cy="60.5" r="12.25" stroke="black" stroke-width="0.5"/>
<mask id="mask2" mask-type="alpha" maskUnits="userSpaceOnUse" x="77" y="102" width="25" height="25">
<circle cx="89.3016" cy="114.302" r="11.9016" fill="#C4C4C4" stroke="black" stroke-width="0.8"/>
</mask>
<g mask="url(#mask2)">
<path d="M78.3415 127.247C78.4232 121.265 83.3852 116.436 89.5 116.436C95.6147 116.436 100.577 121.265 100.658 127.247H78.3415Z" fill="#FDB92D" stroke="black" stroke-width="0.3"/>
</g>
<circle cx="89.5" cy="110.5" r="4.35" fill="#FDB92D" stroke="black" stroke-width="0.3"/>
<circle cx="89.5" cy="114.5" r="12.25" stroke="black" stroke-width="0.5"/>
</svg>

<svg width="169" height="169" fill="none" xmlns="http://www.w3.org/2000/svg"><circle cx="84.5" cy="84.5" r="84.5" fill="#FFEAC0"/><path d="M79.305 75.565C79.275 74.108 78.281 73 76.667 73 75.054 73 74 74.108 74 75.565c0 1.424 1.023 2.563 2.606 2.563h.03c1.645 0 2.67-1.14 2.67-2.563zM96 86.489c0-4.56-2.326-6.681-5.429-6.681-2.502 0-3.623 1.438-4.25 2.45v-2.102h-4.717c.062 1.392 0 14.844 0 14.844h4.716v-8.29c0-.444.03-.886.155-1.204.341-.886 1.118-1.804 2.42-1.804 1.707 0 2.39 1.362 2.39 3.357V95H96v-8.51zm-17.006-6.332h-4.716V95h4.716V80.157z" fill="#F2F2F2"/><path d="M79.722 73.793h0v-.01c-.018-.828-.315-1.584-.867-2.135-.555-.554-1.334-.867-2.252-.867-.917 0-1.709.312-2.274.862-.564.55-.874 1.31-.874 2.15 0 1.668 1.236 3.011 3.087 3.011h.03c.934 0 1.727-.321 2.289-.877.56-.554.86-1.313.86-2.134zm16.074 19.54h.5v-8.839c0-2.315-.599-4.084-1.667-5.28-1.073-1.202-2.566-1.764-4.223-1.764-1.345 0-2.346.384-3.099.921a4.964 4.964 0 00-.62.527V77.79H80.98l.024.523c.03.667.03 4.284.022 7.759a2943.812 2943.812 0 01-.02 6.19l-.002.42v.147h0l.5.003-.5-.002-.003.502h5.684v-8.62c0-.433.033-.781.118-.995l.002-.003c.295-.757.924-1.45 1.937-1.45.693 0 1.122.261 1.404.687.303.46.468 1.168.468 2.102v8.28h5.181zM74.231 77.791h-.5v15.54h5.682v-15.54H74.23zM69.5 72.27c0-3.188 2.525-5.771 5.575-5.771h18.851c3.05 0 5.574 2.583 5.574 5.77v19.46c0 3.188-2.524 5.77-5.574 5.77H75.075c-3.05 0-5.575-2.582-5.575-5.77V72.27z" fill="#FDB92D" fill-opacity=".8" stroke="#3F3D56"/><mask id="mask0" maskUnits="userSpaceOnUse" x="99" y="45" width="25" height="25"><circle cx="111.302" cy="57.302" r="11.902" fill="#C4C4C4" stroke="#000" stroke-width=".8"/></mask><g mask="url(#mask0)"><path d="M100.341 70.247c.082-5.982 5.044-10.811 11.159-10.811 6.115 0 11.077 4.829 11.158 10.81h-22.317z" fill="#FDB92D" stroke="#000" stroke-width=".3"/></g><circle cx="111.5" cy="53.5" r="4.35" fill="#FDB92D" stroke="#000" stroke-width=".3"/><circle cx="111.5" cy="57.5" r="12.25" stroke="#000" stroke-width=".5"/><mask id="mask1" maskUnits="userSpaceOnUse" x="43" y="48" width="25" height="25"><circle cx="55.302" cy="60.302" r="11.902" fill="#C4C4C4" stroke="#000" stroke-width=".8"/></mask><g mask="url(#mask1)"><path d="M44.342 73.247c.081-5.982 5.043-10.811 11.158-10.811 6.115 0 11.077 4.829 11.159 10.81H44.34z" fill="#FDB92D" stroke="#000" stroke-width=".3"/></g><circle cx="55.5" cy="56.5" r="4.35" fill="#FDB92D" stroke="#000" stroke-width=".3"/><circle cx="55.5" cy="60.5" r="12.25" stroke="#000" stroke-width=".5"/><mask id="mask2" maskUnits="userSpaceOnUse" x="77" y="102" width="25" height="25"><circle cx="89.302" cy="114.302" r="11.902" fill="#C4C4C4" stroke="#000" stroke-width=".8"/></mask><g mask="url(#mask2)"><path d="M78.341 127.247c.082-5.982 5.044-10.811 11.159-10.811 6.115 0 11.077 4.829 11.158 10.811H78.341z" fill="#FDB92D" stroke="#000" stroke-width=".3"/></g><circle cx="89.5" cy="110.5" r="4.35" fill="#FDB92D" stroke="#000" stroke-width=".3"/><circle cx="89.5" cy="114.5" r="12.25" stroke="#000" stroke-width=".5"/></svg>
